svgs/regular/face-zipper.svg

<svg xmlns="http://www.w3.org/2000/svg" viewBox="0 0 512 512"><!--! Font Awesome Pro 6.4.2 by @fontawesome - https://fontawesome.com License - https://fontawesome.com/license (Commercial License) Copyright 2023 Fonticons, Inc. --><path d="M389.2 394.3l29.1 58.1c14.7 29.3 53.7 35.6 76.9 12.5l1.8-1.8c23.2-23.2 16.8-62.2-12.5-76.9l-58.1-29.1c-6.2-3.1-13.6-1.9-18.5 3l-15.7 15.7c-4.9 4.9-6.1 12.3-3 18.5zm91.3 38.2l-16 16c-4.7 4.7-12.3 4.7-17 0s-4.7-12.3 0-17l16-16c4.7-4.7 12.3-4.7 17 0s4.7 12.3 0 17zM256 48C141.1 48 48 141.1 48 256s93.1 208 208 208c42.5 0 82-12.7 114.9-34.6l18.7 37.3c1 2 2 3.9 3.1 5.7C353.2 497.5 306.3 512 256 512C114.6 512 0 397.4 0 256S114.6 0 256 0S512 114.6 512 256c0 34.9-7 68.1-19.6 98.4l-43.1-21.5c9.5-23.8 14.7-49.7 14.7-76.9c0-114.9-93.1-208-208-208zM144.4 208a32 32 0 1 1 64 0 32 32 0 1 1 -64 0zm192-32a32 32 0 1 1 0 64 32 32 0 1 1 0-64zM208 320c8.8 0 16 7.2 16 16v32c0 8.8-7.2 16-16 16s-16-7.2-16-16V336c0-8.8 7.2-16 16-16zm80 16v32c0 8.8-7.2 16-16 16s-16-7.2-16-16V336c0-8.8 7.2-16 16-16s16 7.2 16 16zm48-16c8.8 0 16 7.2 16 16v32c0 8.8-7.2 16-16 16s-16-7.2-16-16V336c0-8.8 7.2-16 16-16zM160 336v32c0 8.8-7.2 16-16 16s-16-7.2-16-16V336c0-8.8 7.2-16 16-16s16 7.2 16 16z"/></svg>

<svg xmlns="http://www.w3.org/2000/svg" viewBox="0 0 512 512"><!--! Font Awesome Pro 6.1.1 by @fontawesome - https://fontawesome.com License - https://fontawesome.com/license (Commercial License) Copyright 2022 Fonticons, Inc. --><path d="M392.2 375.8L407.8 360.2C412.7 355.3 420.2 354.1 426.3 357.2L484.4 386.2C513.7 400.9 520.1 439.9 496.9 463.1L495.1 464.9C471.9 488.1 432.9 481.7 418.2 452.4L389.2 394.3C386.1 388.2 387.3 380.7 392.2 375.8L392.2 375.8zM480.5 432.5C485.2 427.8 485.2 420.2 480.5 415.5C475.8 410.8 468.2 410.8 463.5 415.5L447.5 431.5C442.8 436.2 442.8 443.8 447.5 448.5C452.2 453.2 459.8 453.2 464.5 448.5L480.5 432.5zM256 48C141.1 48 48 141.1 48 256C48 370.9 141.1 464 256 464C298.5 464 337.1 451.3 370.9 429.4L389.6 466.7C390.6 468.7 391.6 470.6 392.7 472.5C353.2 497.5 306.3 512 256 512C114.6 512 0 397.4 0 256C0 114.6 114.6 0 256 0C397.4 0 512 114.6 512 256C512 290.9 505 324.1 492.4 354.4L449.3 332.9C458.8 309.1 464 283.2 464 256C464 141.1 370.9 48 256 48zM208.4 208C208.4 225.7 194 240 176.4 240C158.7 240 144.4 225.7 144.4 208C144.4 190.3 158.7 176 176.4 176C194 176 208.4 190.3 208.4 208zM304.4 208C304.4 190.3 318.7 176 336.4 176C354 176 368.4 190.3 368.4 208C368.4 225.7 354 240 336.4 240C318.7 240 304.4 225.7 304.4 208zM208 320C216.8 320 224 327.2 224 336V368C224 376.8 216.8 384 208 384C199.2 384 192 376.8 192 368V336C192 327.2 199.2 320 208 320zM288 368C288 376.8 280.8 384 272 384C263.2 384 256 376.8 256 368V336C256 327.2 263.2 320 272 320C280.8 320 288 327.2 288 336V368zM336 320C344.8 320 352 327.2 352 336V368C352 376.8 344.8 384 336 384C327.2 384 320 376.8 320 368V336C320 327.2 327.2 320 336 320zM160 368C160 376.8 152.8 384 144 384C135.2 384 128 376.8 128 368V336C128 327.2 135.2 320 144 320C152.8 320 160 327.2 160 336V368z"/></svg>
